dist/images/star-fill.svg

<svg width="16" height="16" viewBox="0 0 16 16" fill="none" xmlns="http://www.w3.org/2000/svg">
<g clip-path="url(#clip0_3197_359)">
<path d="M0.0229731 6.16432C0.0780973 5.9946 0.224753 5.87091 0.401315 5.84529L5.36139 5.12451L7.57966 0.629933C7.6586 0.469933 7.82157 0.368652 7.99997 0.368652C8.17841 0.368652 8.34135 0.469933 8.42032 0.629933L10.6387 5.12451L15.5987 5.84529C15.7752 5.87091 15.9219 5.9946 15.977 6.16429C16.0322 6.334 15.9862 6.52028 15.8584 6.64481L12.2694 10.1434L13.1165 15.0834C13.1467 15.2593 13.0744 15.437 12.9301 15.5419C12.8484 15.6012 12.7517 15.6314 12.6545 15.6314C12.5799 15.6314 12.505 15.6136 12.4365 15.5776L8 13.2451L3.56374 15.5775C3.40577 15.6606 3.21443 15.6467 3.07009 15.5419C2.92574 15.437 2.8534 15.2593 2.88356 15.0834L3.73096 10.1434L0.141566 6.64478C0.0138168 6.52028 -0.0322151 6.334 0.0229731 6.16432Z" fill="#FFB800"/>
</g>
<defs>
<clipPath id="clip0_3197_359">
<rect width="16" height="16" fill="white" transform="matrix(-1 0 0 1 16 0)"/>
</clipPath>
</defs>
</svg>

<svg width="16" height="16" fill="none" xmlns="http://www.w3.org/2000/svg"><g clip-path="url(#clip0_3197_359)"><path d="M.023 6.164a.469.469 0 01.378-.319l4.96-.72L7.58.63a.469.469 0 01.84 0l2.219 4.495 4.96.72a.469.469 0 01.26.8l-3.59 3.498.848 4.94a.469.469 0 01-.68.495L8 13.245l-4.436 2.333a.469.469 0 01-.68-.495l.847-4.94-3.59-3.498a.469.469 0 01-.118-.48z" fill="#FFB800"/></g><defs><clipPath id="clip0_3197_359"><path fill="#fff" transform="matrix(-1 0 0 1 16 0)" d="M0 0h16v16H0z"/></clipPath></defs></svg>
